X:1
T: ACH GOTT ES DRUCKT DAS HERZ MIR AB
N: E0615
O: Europa, Mitteleuropa, Deutschland, Schwarzwald
R: Liebes - Lied
M: 3/4
L: 1/16
K: G
D2 | B3BB6A2 | A3GG4z2
G2 | G2G2e6d2 | d2^c2=c4z2
D2 | c3cc6B2 | A3AA4z2
G2 | d3dc6A2 | G3BA4z4 |
d3dd6c2 | B3BB6A2 |
G3Ge6d2 | d3^c=c8 |
c3cc6B2 | A3AA6G2 |
F3Ad2d2c2A2 | G8z2

@@@ Tune index: 4314
